src/assets/icons/send.svg

<svg viewBox="0 0 21 20" xmlns="http://www.w3.org/2000/svg">
<path d="M18.3398 7.31637L4.33976 0.314359C3.78725 0.0392893 3.16338 -0.0586374 2.55319 0.0339303C1.94301 0.126498 1.37622 0.405055 0.93009 0.831623C0.483963 1.25819 0.180212 1.81201 0.0602519 2.41757C-0.0597082 3.02313 0.00996047 3.65097 0.259759 4.21548L2.65976 9.58702C2.71422 9.71689 2.74226 9.85631 2.74226 9.99714C2.74226 10.138 2.71422 10.2774 2.65976 10.4073L0.259759 15.7788C0.0564592 16.2356 -0.0294852 16.7361 0.00973622 17.2346C0.0489576 17.7331 0.212101 18.2139 0.484341 18.6333C0.756581 19.0527 1.12928 19.3974 1.56858 19.6361C2.00788 19.8748 2.49984 19.9999 2.99976 20C3.46799 19.9953 3.92925 19.886 4.34976 19.6799L18.3498 12.6779C18.8464 12.428 19.2638 12.045 19.5555 11.5717C19.8471 11.0983 20.0016 10.5532 20.0016 9.99714C20.0016 9.44108 19.8471 8.89597 19.5555 8.4226C19.2638 7.94924 18.8464 7.56625 18.3498 7.31637H18.3398ZM17.4498 10.8874L3.44976 17.8894C3.26592 17.9777 3.05949 18.0077 2.85815 17.9753C2.6568 17.9429 2.47017 17.8497 2.32327 17.7082C2.17638 17.5667 2.07624 17.3837 2.03629 17.1836C1.99634 16.9836 2.01849 16.7761 2.09976 16.589L4.48976 11.2175C4.5207 11.1458 4.54741 11.0723 4.56976 10.9974H11.4598C11.725 10.9974 11.9793 10.892 12.1669 10.7044C12.3544 10.5169 12.4598 10.2624 12.4598 9.99714C12.4598 9.73184 12.3544 9.47742 12.1669 9.28983C11.9793 9.10223 11.725 8.99685 11.4598 8.99685H4.56976C4.54741 8.92199 4.5207 8.84851 4.48976 8.77678L2.09976 3.40524C2.01849 3.21815 1.99634 3.01068 2.03629 2.81064C2.07624 2.61061 2.17638 2.42757 2.32327 2.28607C2.47017 2.14458 2.6568 2.05139 2.85815 2.019C3.05949 1.98661 3.26592 2.01658 3.44976 2.10487L17.4498 9.10688C17.6136 9.19082 17.751 9.31835 17.847 9.47543C17.943 9.63251 17.9938 9.81304 17.9938 9.99714C17.9938 10.1812 17.943 10.3618 17.847 10.5188C17.751 10.6759 17.6136 10.8034 17.4498 10.8874Z"/>
</svg>

<svg viewBox="0 0 21 20" xmlns="http://www.w3.org/2000/svg">
  <path d="M18.34 7.316 4.34.314A3 3 0 0 0 .26 4.215l2.4 5.372a1.06 1.06 0 0 1 0 .82L.26 15.78A3.002 3.002 0 0 0 3 20c.468-.005.93-.114 1.35-.32l14-7.002a3 3 0 0 0 0-5.362h-.01zm-.89 3.571-14 7.002a1 1 0 0 1-1.35-1.3l2.39-5.371c.03-.072.057-.146.08-.22h6.89a1 1 0 0 0 0-2.001H4.57a2 2 0 0 0-.08-.22L2.1 3.405a1 1 0 0 1 1.35-1.3l14 7.002a1 1 0 0 1 0 1.78z"/>
</svg>
